X:1
T:Title
%%score { ( 1 4 ) | ( 2 3 ) }
L:1/8
M:3/4
K:A
V:1 treble nm="Grand Piano"
V:4 treble 
V:2 treble 
V:3 treble 
V:1
 z2 z[Q:1/4=82] c cd | [Ec]3 E FE | B4[K:bass][K:treble] z2 | G4 z2 | [CE]3 c cd | [Ec]3 E FE | %6
 B4[K:bass][K:treble] z2 | G4 z2 |[M:5/8] [CA]- [CA]3 z |[M:1/8] c | %10
[M:3/4] z2 [Ec]4[K:bass][K:treble] | z2 B4[K:bass][K:treble] | GA BG AB | c4 z c | %14
 z2 [Ec]4[K:bass][K:treble] | z2 B4[K:bass][K:treble] |[M:13/16] GABE[Ac]3/2B |[M:3/8] A3 |] %18
V:2
 z2 z E EF | z E, A,C CC | [D,D]3 D DD | [E,D]3 D z D | z E, A,[K:treble]E EF | z E, A,C CC | %6
 [D,D]3 D DD | [E,D]3 D DE |[M:5/8] A,,- A,,3 z |[M:1/8] [A,E] | %10
[M:3/4] [A,E][E,C] A,3[K:treble] [A,=G] | [A,F][K:bass][A,D] [F,D]3 [^D,B,] | %12
 [E,B,E][E,CE] [E,DE][E,DE] [E,CE][E,G,E] | [A,E]4 z [A,E] | [A,E][E,C] A,3[K:treble] [A,=G] | %15
 [A,F][K:bass][A,D] [F,D]3 [^D,B,] |[M:13/16] [E,B,E][E,CE][E,DE][E,C][E,E]3/2[E,DE] | %17
[M:3/8] [A,CE]3 |] %18
V:3
 x6 | A,,4 z2 | x6 | z2 z2 G,2 | A,,4[K:treble] z2 | A,,4 z2 | z2 z2 [E,B,]2 | z2 z2 [E,G,]2 | %8
[M:5/8] x5 |[M:1/8] x |[M:3/4] z2 .A,,2 z2[K:treble] | z2[K:bass] .D,2 z2 | x6 | x6 | %14
 z2 .A,,2 z2[K:treble] | z2[K:bass] .D,2 z2 |[M:13/16] x13/2 |[M:3/8] x3 |] %18
V:4
 x6 | x6 | z[K:bass] F, B,[K:treble]F GA | z G, B,F [B,D]F | .A,2 z2 z2 | x6 | %6
 z[K:bass] F, B,[K:treble]F GA | z G, B,E Bc |[M:5/8] A,E,A, z2 |[M:1/8] x | %10
[M:3/4] cA z[K:bass] A,, A,,[K:treble]c | dF z[K:bass] D, D,[K:treble][FA] | x6 | x6 | %14
 cA z[K:bass] A,, A,,[K:treble]c | dF z[K:bass] D, D,[K:treble][FA] |[M:13/16] x13/2 |[M:3/8] x3 |] %18

